X:19025
T:Xiraldilla (CT 245)
R:Xiraldilla
C:Tradicional
S:Msica Tradicional Asturiana, (C) Tello & Tito. Asturies, 2001.
S:http://pagina.de/MusTradAst <telloytito@asturies.org>
N:Xiraldilla, transcrita en L.leitariegos.
O:L.leitariegos
A:Asturies
Z:Cancioneru de Torner 245
M:3/8
L:1/8
Q:3/8=88
W:Ya se van los pastores
W:a Extremadura; (bis)
W:ya se queda la sierra
W:trieste y escura. (bis)
W:
W:Ya se van los pastores
W:de la mayada; (bis)
W:ya se queda la sierra
W:triste y callada. (bis)
W:
W:Llucerito qu'alumbras
W:a los pastores: (bis)
W:da-y lluz a la prenda
W:de mios amores. (bis)
K:G
G2B|dcd|BBA|ccB|G2B|dcd|B3-|B2 z|
G2B|dcd|BBA|ccB|G2B|ABF|G3-|G2 z|
